icons/marvel.svg

<?xml version="1.0" encoding="UTF-8"?>
<svg width="512px" height="223px" viewBox="0 0 512 223" version="1.1" xmlns="http://www.w3.org/2000/svg" xmlns:xlink="http://www.w3.org/1999/xlink" preserveAspectRatio="xMidYMid">
    <g>
        <path d="M434.829208,144.067429 C248.585016,129.227254 94.9892077,174.489787 60.1147971,191.555988 C40.82257,200.460092 39.3385525,211.590223 42.3065875,217.526293 C44.5326137,221.978346 54.1787273,224.946381 63.8248408,219.75232 C138.025714,179.683848 287.16947,147.777472 434.829208,156.681577 C438.539252,156.681577 441.507287,153.713542 441.507287,150.003498 C441.507287,147.035463 438.539252,144.067429 434.829208,144.067429 L434.829208,144.067429 Z M480.83375,87.6747647 C472.671654,96.5788695 461.541523,103.256948 457.831479,100.288913 C454.121436,97.3208782 457.831479,86.1907472 457.831479,86.1907472 C476.381698,74.3186074 511.998117,43.8962493 511.998117,20.1519698 C511.998117,-1.36628356 492.70589,-8.04436218 472.671654,11.9898737 C456.347462,29.7980833 444.475322,52.0583454 437.797243,75.8026249 C427.409121,86.1907472 410.34292,99.5469044 395.502745,99.5469044 C387.340649,99.5469044 385.856632,93.6108346 386.598641,86.1907472 C399.212789,86.1907472 434.829208,75.8026249 434.829208,46.1222755 C434.829208,40.9282143 432.603182,36.4761619 428.893139,32.7661183 C425.183095,29.0560746 420.731042,27.5720571 415.536981,28.3140658 C399.212789,28.3140658 379.178553,44.638258 368.790431,68.3825376 C366.564405,67.6405288 363.59637,66.8985201 361.370344,65.4145026 C364.338379,59.4784327 365.822396,53.5423628 368.048422,47.606293 C370.274448,34.9921445 365.080387,27.5720571 355.434274,29.0560746 C348.756195,29.0560746 341.336108,34.9921445 339.110082,47.606293 C338.368073,54.2843716 339.85209,60.9624502 342.078117,66.1565113 C337.626064,80.2546773 319.817854,97.3208782 313.881785,96.5788695 C307.945715,95.8368608 314.623793,71.3505725 320.559863,52.8003541 C324.269907,49.0903104 326.495933,45.3802668 328.721959,40.1862056 C330.205977,36.4761619 329.463968,32.0241095 325.753924,30.5400921 C316.84982,26.8300484 306.461697,31.2821008 302.751654,40.1862056 C300.525627,44.638258 298.299601,49.0903104 296.073575,54.2843716 C290.879514,60.2204415 283.459426,68.3825376 281.2334,67.6405288 C278.265365,65.4145026 289.395496,50.5743279 287.911479,41.6702231 C287.16947,34.9921445 280.491392,29.7980833 273.813313,30.5400921 C263.425191,32.0241095 250.811042,51.3163366 250.811042,51.3163366 C252.29506,47.606293 253.037068,43.8962493 253.779077,40.1862056 C253.037068,32.7661183 239.680911,29.7980833 233.002832,43.1542406 C228.55078,55.7683891 224.840736,69.1245463 223.356719,82.4807035 C220.388684,88.4167734 209.258553,106.224983 200.354448,106.966992 C192.934361,107.709001 201.838466,75.0606162 203.322483,73.5765987 C207.032527,67.6405288 212.226588,55.0263803 211.484579,49.0903104 C211.484579,46.1222755 210.74257,43.8962493 208.516544,42.4122318 C206.290518,40.9282143 203.322483,40.1862056 201.096457,40.9282143 C196.644404,42.4122318 192.934361,45.3802668 190.708335,49.0903104 C187.7403,45.3802668 182.546238,43.1542406 177.352177,43.8962493 C147.671828,46.8642842 129.12161,98.8048957 131.347636,123.291184 C132.831653,136.647341 139.509732,144.809437 150.639863,142.583411 C163.254011,141.099394 173.642134,121.807166 173.642134,121.807166 C173.642134,121.807166 176.610169,137.38935 190.708335,135.905332 C201.096457,132.937298 210.000562,126.259219 216.67864,117.355114 C216.67864,118.097123 215.936632,118.839132 215.936632,120.323149 C213.710605,133.679306 235.228859,132.195289 236.712876,121.807166 C243.390955,72.0925812 259.715147,52.0583454 264.167199,52.0583454 C267.877243,52.0583454 253.779077,75.0606162 261.941173,84.7067297 C268.619252,92.1268171 279.749383,86.1907472 289.395496,78.0286511 C287.911479,83.964721 287.16947,90.6427996 286.427461,96.5788695 C285.685453,110.677035 290.879514,121.807166 304.235671,121.065158 C322.043881,120.323149 340.594099,98.062887 353.208248,77.2866424 C356.176283,79.5126686 359.886326,80.9966861 363.59637,81.7386948 C362.112352,86.9327559 362.112352,92.1268171 362.112352,96.5788695 C362.854361,112.903062 373.984492,118.839132 387.340649,118.097123 C402.180824,117.355114 419.989034,106.224983 431.861174,95.094852 C431.861174,95.8368608 431.861174,96.5788695 431.119165,96.5788695 C430.377156,104.740966 431.861174,118.839132 442.991305,119.58114 C455.605453,120.323149 477.865715,107.709001 488.995846,93.6108346 C497.157942,89.1587821 487.511829,80.2546773 480.83375,87.6747647 L480.83375,87.6747647 L480.83375,87.6747647 Z M492.70589,20.8939785 C494.189907,20.8939785 494.931916,22.377996 494.931916,23.8620134 C494.931916,37.9601794 460.799514,66.8985201 460.799514,66.8985201 C460.799514,66.8985201 483.059776,20.8939785 492.70589,20.8939785 L492.70589,20.8939785 Z M409.600911,49.8323192 C411.084929,49.8323192 411.826938,49.8323192 412.568946,51.3163366 C413.310955,52.8003541 413.310955,53.5423628 413.310955,54.2843716 C413.310955,62.4464677 402.922833,68.3825376 391.050693,68.3825376 C397.728772,58.736424 404.40685,49.8323192 409.600911,49.8323192 L409.600911,49.8323192 Z M179.578204,71.3505725 C178.836195,79.5126686 163.99602,117.355114 156.575933,117.355114 C146.929819,118.097123 161.769994,64.6724939 177.352177,64.6724939 C180.320212,64.6724939 180.320212,66.8985201 179.578204,71.3505725 L179.578204,71.3505725 Z M54.1787273,81.7386948 C63.8248408,81.7386948 46.0166312,131.45328 48.2426574,152.971533 C50.4686836,174.489787 74.2129631,168.553717 72.7289456,155.939568 C69.7609107,134.421315 84.6010854,66.8985201 98.6992514,66.8985201 C109.087374,66.8985201 86.8271116,112.903062 91.279164,141.841402 C94.247199,160.391621 119.475496,155.19756 116.507461,142.583411 C108.345365,104.740966 135.057679,68.3825376 131.347636,41.6702231 C129.863618,30.5400921 123.18554,24.6040222 116.507461,24.6040222 C92.7631815,24.6040222 73.4709544,73.5765987 73.4709544,73.5765987 C73.4709544,73.5765987 76.4389893,46.1222755 56.4047535,44.638258 C28.2084215,43.1542406 -0.72991916,114.387079 0.0120895751,178.941839 C0.75409831,199.718084 25.9823953,196.00804 24.4983778,179.683848 C23.0143604,150.745507 39.3385525,81.7386948 54.1787273,81.7386948 L54.1787273,81.7386948 Z" fill="#20B6FF"></path>
    </g>
</svg>

<svg xmlns="http://www.w3.org/2000/svg" viewBox="0 0 512 222.504">
  <path fill="#20b6ff" d="M434.831 144.067c-186.244-14.84-339.84 30.423-374.714 47.489-19.293 8.904-20.777 20.034-17.809 25.97 2.226 4.452 11.873 7.42 21.519 2.226 74.2-40.068 223.344-71.975 371.004-63.07a6.65 6.65 0 0 0 6.678-6.678c0-2.969-2.968-5.937-6.678-5.937zm46.005-56.392c-8.162 8.904-19.293 15.582-23.003 12.614-3.71-2.968 0-14.098 0-14.098C476.383 74.319 512 43.896 512 20.152c0-21.518-19.292-28.196-39.326-8.162-16.325 17.808-28.197 40.068-34.875 63.813-10.388 10.388-27.454 23.744-42.294 23.744-8.162 0-9.646-5.936-8.904-13.356 12.614 0 48.23-10.388 48.23-40.069 0-5.194-2.226-9.646-5.936-13.356-3.71-3.71-8.162-5.194-13.356-4.452-16.324 0-36.359 16.324-46.747 40.069-2.226-.742-5.194-1.484-7.42-2.968 2.968-5.937 4.452-11.873 6.678-17.809 2.226-12.614-2.968-20.034-12.614-18.55-6.678 0-14.098 5.936-16.324 18.55-.742 6.678.742 13.356 2.968 18.55-4.452 14.099-22.26 31.165-28.196 30.423-5.936-.742.742-25.228 6.678-43.779 3.71-3.71 5.936-7.42 8.162-12.614 1.484-3.71.742-8.162-2.968-9.646-8.904-3.71-19.292.742-23.002 9.646-2.226 4.452-4.453 8.904-6.679 14.098-5.194 5.936-12.614 14.099-14.84 13.357-2.968-2.226 8.162-17.067 6.678-25.97-.742-6.679-7.42-11.873-14.098-11.13-10.388 1.483-23.002 20.775-23.002 20.775 1.484-3.71 2.226-7.42 2.968-11.13-.742-7.42-14.098-10.388-20.776 2.968-4.452 12.614-8.162 25.97-9.646 39.327-2.968 5.936-14.099 23.744-23.003 24.486-7.42.742 1.484-31.906 2.968-33.39 3.71-5.936 8.904-18.55 8.162-24.487 0-2.968-.742-5.194-2.968-6.678s-5.194-2.226-7.42-1.484c-4.452 1.484-8.162 4.452-10.388 8.162-2.968-3.71-8.162-5.936-13.356-5.194-29.68 2.968-48.23 54.909-46.004 79.395 1.484 13.356 8.162 21.518 19.292 19.292 12.614-1.484 23.002-20.776 23.002-20.776s2.968 15.582 17.066 14.098c10.388-2.968 19.292-9.646 25.97-18.55 0 .742-.741 1.484-.741 2.968-2.227 13.356 19.292 11.872 20.776 1.484 6.678-49.714 23.002-69.749 27.454-69.749 3.71 0-10.388 23.003-2.226 32.649 6.678 7.42 17.808 1.484 27.454-6.678-1.484 5.936-2.226 12.614-2.968 18.55-.742 14.098 4.452 25.228 17.809 24.486 17.808-.742 36.358-23.002 48.972-43.778 2.968 2.226 6.678 3.71 10.388 4.452-1.484 5.194-1.484 10.388-1.484 14.84.742 16.324 11.872 22.26 25.229 21.518 14.84-.742 32.648-11.872 44.52-23.002 0 .742 0 1.484-.742 1.484-.742 8.162.742 22.26 11.872 23.002 12.614.742 34.875-11.872 46.005-25.97 8.162-4.452-1.484-13.356-8.162-5.936zm11.872-66.781c1.484 0 2.226 1.484 2.226 2.968 0 14.098-34.133 43.037-34.133 43.037s22.26-46.005 31.907-46.005zm-83.105 28.938c1.484 0 2.226 0 2.968 1.484s.742 2.226.742 2.968c0 8.162-10.388 14.099-22.26 14.099 6.678-9.647 13.356-18.55 18.55-18.55zM179.58 71.351c-.742 8.162-15.582 46.004-23.002 46.004-9.646.742 5.194-52.683 20.776-52.683 2.968 0 2.968 2.227 2.226 6.679zM54.18 81.739c9.647 0-8.161 49.714-5.935 71.233 2.226 21.518 25.97 15.582 24.486 2.968-2.968-21.519 11.872-89.041 25.97-89.041 10.388 0-11.872 46.004-7.42 74.942 2.968 18.55 28.196 13.357 25.228.742-8.162-37.842 18.55-74.2 14.84-100.913-1.483-11.13-8.162-17.066-14.84-17.066-23.744 0-43.036 48.973-43.036 48.973s2.968-27.455-17.066-28.939C28.21 43.154-.728 114.388.014 178.942c.742 20.776 25.97 17.066 24.486.742-1.484-28.938 14.84-97.945 29.68-97.945z"/>
</svg>
